FastReport.Core.Web/Resources/print.svg

<svg width="20" height="18" viewBox="0 0 20 20" fill="none" xmlns="http://www.w3.org/2000/svg">
<path d="M17.6154 13.4615C17.6154 13.0943 17.4695 12.7421 17.2098 12.4825C16.9502 12.2228 16.598 12.0769 16.2308 12.0769H3.76923C3.40201 12.0769 3.04983 12.2228 2.79016 12.4825C2.53049 12.7421 2.38462 13.0943 2.38462 13.4615M17.6154 13.4615V19H2.38462V13.4615M17.6154 13.4615C17.9826 13.4615 18.3348 13.3157 18.5945 13.056C18.8541 12.7963 19 12.4441 19 12.0769V9.30769C19 8.94047 18.8541 8.58829 18.5945 8.32862C18.3348 8.06896 17.9826 7.92308 17.6154 7.92308H2.38462C2.01739 7.92308 1.66521 8.06896 1.40554 8.32862C1.14588 8.58829 1 8.94047 1 9.30769V12.0769C1 12.4441 1.14588 12.7963 1.40554 13.056C1.66521 13.3157 2.01739 13.4615 2.38462 13.4615M5.84615 15.5385H14.1538M4.46154 1H15.5385V7.92308H4.46154V1Z" stroke="#35363A" stroke-width="2" stroke-linecap="round" stroke-linejoin="round"/>
</svg>

<svg viewBox="0 0 20 20" fill="none" xmlns="http://www.w3.org/2000/svg"><path d="M17.615 13.461a1.384 1.384 0 0 0-1.384-1.384H3.769a1.385 1.385 0 0 0-1.384 1.384m15.23 0V19H2.385v-5.539m15.23 0A1.385 1.385 0 0 0 19 12.077v-2.77a1.385 1.385 0 0 0-1.385-1.384H2.385A1.385 1.385 0 0 0 1 9.308v2.769a1.385 1.385 0 0 0 1.385 1.384m3.461 2.078h8.308M4.462 1h11.077v6.923H4.462V1z" stroke="#35363A" stroke-width="2" stroke-linecap="round" stroke-linejoin="round"/></svg>
